X: 41414
T: Twin Cities, The
R: jig
M: 6/8
K: Dmixolydian
DEG ABc|BAG EDC|G,CC ECC|GEC EDC|
DEG ABc|BAG EDC|G,A,C EAG|EDD D3:|
Add faf|gfd cAG|DGG BGG|dBG BAG|
Add faf|gfd cAG|G,A,C EAG|EDD D3:|
DFG Add|Add Add|DFG Add|cAG EDC|
DFG Add|Add Add|DFG AcA|GEC D3:|
Add faf|gfd cAG|DGG Bdg|bge dBG|
Add faf|gfd cAG|G,A,C EAG|EDD D3:|

